X: 19910
T: Jig In A
R: jig
M: 6/8
K: Amajor
B|[c3e3]{d}cBA|BAF ECB,|~A,3 CA,C|ECE FEC|
A,2 c cBA|BAF ECB,|~A,3 CA,C|EAG A2 B|
cec cBA|BAF ECB,|~A,3 CA,C|ECE FEC|
A,2 e cBA|BAF ECB,|~A,3 CA,C|EAG A2 E||
A/B/cE GBE|Ace a2 e|faf ecA|cB_B =BcB|
A/B/cE GBE|Ace a2 e|faf ecB|{d}BAG AcB|
A/B/cE GBE|Ace a2 g|~f3 ecA|cB_B =BcB|
A/B/cA GFE|Ace a2 e|faf ecB|{d}BAG A2 B||

